shared/img/tn-yahoo.svg

<?xml version="1.0" encoding="UTF-8"?>
<svg width="15px" height="16px" viewBox="0 0 15 16" version="1.1" xmlns="http://www.w3.org/2000/svg" xmlns:xlink="http://www.w3.org/1999/xlink">
    <!-- Generator: sketchtool 47.1 (45422) - http://www.bohemiancoding.com/sketch -->
    <title>E2C09AAE-4069-4BDD-BB9C-1DF6760FAFA9</title>
    <desc>Created with sketchtool.</desc>
    <defs></defs>
    <g id="V4--RC-Updates" stroke="none" stroke-width="1" fill="none" fill-rule="evenodd">
        <g id="ASSETS--Pill-Icons" transform="translate(-180.000000, -30.000000)" fill-rule="nonzero" fill="#FFFFFF">
            <g id="yahoo" transform="translate(180.000000, 30.000000)">
                <path d="M14.0942222,0.355555556 C13.2515556,0.259555556 12.9991111,0.8 12.9386667,1.47911111 C12.608,5.08444444 12.2951111,8.68977778 11.9715556,12.3555556 L12.5191111,12.5226667 C13.3297778,8.88888889 14.1404444,5.26577778 14.9333333,1.65333333 C15.0862222,0.924444444 14.7377778,0.440888889 14.0942222,0.355555556 Z" id="Shape"></path>
                <path d="M11.7333333,0.572444444 L9.80622222,0.572444444 C9.69983687,0.721751526 9.60247782,0.877288547 9.51466667,1.03822222 C8.35555556,3.02577778 7.16088889,4.97777778 5.89511111,7.11111111 C5.68888889,6.79466667 5.57511111,6.624 5.472,6.44977778 C4.352,4.56533333 3.24622222,2.67733333 2.10488889,0.814222222 C2.04657785,0.725286515 1.97729122,0.644053915 1.89866667,0.572444444 L0,0.572444444 L0.0284444444,0.632888889 C1.53244444,3.2 3.06133333,5.77422222 4.51555556,8.38044444 C4.82284732,8.97086473 4.98955399,9.62430621 5.00266667,10.2897778 C5.06666667,12.1493333 5.024,14.0124444 5.024,15.8542222 L6.69511111,15.8542222 L6.69511111,11.9182222 C6.59555556,9.82755556 7.26044444,7.98577778 8.41955556,6.208 C9.57866667,4.43022222 10.6311111,2.48888889 11.7333333,0.572444444 Z" id="Shape"></path>
                <path d="M11.8862222,13.7813333 C11.4460594,13.7741166 11.0452082,14.0337082 10.8717411,14.4383124 C10.6982739,14.8429165 10.7866147,15.312241 11.0953155,15.6260868 C11.4040163,15.9399326 11.8718165,16.0360182 12.2792324,15.869262 C12.6866483,15.7025057 12.9528297,15.3059997 12.9528889,14.8657778 C12.9576556,14.5798126 12.8473829,14.3039122 12.6468251,14.1000117 C12.4462673,13.8961113 12.1722271,13.7812936 11.8862222,13.7813333 Z" id="Shape"></path>
            </g>
        </g>
    </g>
</svg>

<svg width="15" height="16" xmlns="http://www.w3.org/2000/svg"><g fill-rule="nonzero" fill="#FFF"><path d="M14.094.356C13.252.26 13 .8 12.94 1.479c-.331 3.605-.644 7.21-.967 10.877l.547.167c.81-3.634 1.621-7.257 2.414-10.87.153-.729-.195-1.212-.839-1.297zM11.733.572H9.806c-.106.15-.204.305-.291.466-1.16 1.988-2.354 3.94-3.62 6.073-.206-.316-.32-.487-.423-.661C4.352 4.565 3.246 2.677 2.105.814a1.266 1.266 0 0 0-.206-.242H0l.028.06C1.532 3.2 3.061 5.775 4.516 8.38a4.32 4.32 0 0 1 .487 1.91c.064 1.86.021 3.722.021 5.564h1.671v-3.936c-.1-2.09.565-3.932 1.725-5.71C9.579 4.43 10.63 2.488 11.733.572zM11.886 13.781a1.084 1.084 0 1 0 1.067 1.085 1.067 1.067 0 0 0-1.067-1.085z"/></g></svg>
